!!!COM: Music21
!!!OTL: Rumba de Berdoias
!!!OMV: pezas_rumbas_rumba-de-berdoias_rumba-de-berdoias-partitura.musicxml
**kern
*I"Bagpipes
*I'Bag
*clefG^2
*k[]
*M2/4
=1
!LO:TX:a:t=Andante
*MM96
!LO:TX:a:t=[quarter]=96
4.r
16ccLL
16ddJJ
=||
8eeL
16ccL
16ddJJ
8eeL
16ffL
16ddJJ
=
8eeL
[8ccJ
8ccL]
16ccL
16ddJJ
=
16eeLL
16ee
16ee
16ffJJ
16ggLL
16ff
16ee
16ffJJ
=
[4dd
8ddL]
16eeL
16ffJJ
=
8.ggL
16ggJk
8ggL
16ffL
16eeJJ
=
8ffL
16ddL
16eeJJ
8ffL
16eeL
16ddJJ
!!linebreak:original
=
8eeL
16ccL
16eeJJ
16ddLL
16cc
16b
16ddJJ
=
8.ccL
16ccJk
8ccL
16ccL
16ddJJ
=||
8eeL
16ccL
16ddJJ
8eeL
16ffL
16ddJJ
=
8eeL
[8ccJ
8ccL]
16ccL
16ddJJ
=
16eeLL
16ee
16ee
16ffJJ
16ggLL
16ff
16ee
16ffJJ
=
[4dd
8ddL]
16eeL
16ffJJ
=
8.ggL
16ggJk
8ggL
16ffL
16eeJJ
!!linebreak:original
=
8ffL
16ddL
16eeJJ
8ffL
16eeL
16ddJJ
=
8eeL
16ccL
16eeJJ
16ddLL
16cc
16b
16ddJJ
=||
8.ccL
16ccJk
8ccL
8ccJ
=||
[2ee
=
16eeKL]
8dd
16eeJk
8ffL
16eeL
16ddJJ
=
[2ee
=
16eeKL]
8dd
16eeJk
8ffL
16eeL
16ddJJ
!!linebreak:original
=
8eeL
16ccL
16ddJJ
8eeL
16ddL
16ccJJ
=
8ddL
16bL
16ccJJ
8ddL
16eeL
16ffJJ
=
8eeL
16ccL
16eeJJ
16ddLL
16cc
16b
16ddJJ
=
8.ccL
16ccJk
8ccL
8ccJ
=||
[2ee
=
16eeKL]
8dd
16eeJk
8ffL
16eeL
16ddJJ
=
[2ee
=
16eeKL]
8dd
16eeJk
8ffL
16eeL
16ddJJ
!!linebreak:original
=
8eeL
16ccL
16ddJJ
8eeL
16ddL
16ccJJ
=
8ddL
16bL
16ccJJ
8ddL
16eeL
16ffJJ
=
8eeL
16ccL
16eeJJ
16ddLL
16cc
16b
16ddJJ
=
8.ccL
16ccJk
8ccL
16ccL
16ddJJ
=||
8cc
4.r
==
*-
